X:1
T:Dear Lord, I Need Thee
T:Dear Lord, I Need Thee
T:Robert Lowry, 1884
T:Eben Eugene Rexford, 1878
T:Public Domain Courtesy of the Cyber Hymnal™
T:Public Domain Courtesy of the Cyber Hymnal™
C:Robert Lowry, 1884
Z:Public Domain
Z:Courtesy of the Cyber Hymnal™
%%score ( 1 2 ) ( 3 4 )
L:1/8
Q:1/4=110
M:4/4
K:Ab
V:1 treble 
V:2 treble 
V:3 bass 
V:4 bass 
V:1
 [CE]2 | [Ec]3 [Fc] [Ec]2 [EB]2 | [FA]2 [DF]2 [CE]2 [CE]2 | [DF]2 [EA]2 [Ed]2 [Ec]2 | (c4 B2) E2 | %5
w: 1.~Dear|Lord, I need Thee|all the time, The|road is rough and|steep; * And|
w: 2.~Temp-|ta- tions meet me|ev- ery- where, To|lure my heart from|Thee; * I|
w: 3.~Dear|Lord, I can- not|walk a- lone, My|heart is full of|fear; * I|
 [Ec]3 [Fd] [Ec]2 [DB]2 | [CA]2 [DF]2 [CE]2 [CE]2 | [DF]2 [FB]2 [EA]2 [DG]2 | [CA]6 [Ec]2 | %9
w: on- ly as I|trust to Thee, The|way to Heav’n I|keep; My|
w: can- not fight them,|Lord, a- lone; Wilt|Thou my help- er|be? This|
w: fal- ter in the|way to Heav’n Un-|less I feel Thee|near; But|
 [GB]3 [FA] [EG]2 [GB]2 | [FA]2 [EG]2 [=DF]2 [FA]2 | [EG]2 [EB]2 [Ec]2 [EA]2 | %12
w: sins a hea- vy|bur- den are; No|peace, no rest I|
w: heart of mine, so|stained with sin, O|wash it white like|
w: when I touch Thy|lov- ing hand, What|rest and peace I|
 ([EG]4 [=DF]2) [DB]2 [EB]3 [EA] [EG]2 [Ge]2 | [Ae]2 [Ac]2 [GB]2 [EG]2 | E2 [EA]2 [EG]3 [=DF] | %15
w: know; * Dear Lord, un- til Thy|bless- ing comes, How|can I let Thee|
w: snow; * Dear Lord, un- til Thy|bless- ing comes, How|dare I let Thee|
w: know! * Dear Lord, un- til Thy|bless- ing comes, I|will not let Thee|
 E6 x2 ||"^Refrain" [DE]2 x4 | [CA]3 [DG] [EA]2 [Ec]2 | (c4 B2) E2 | [EB]3 [E=A] [EB]2 [Ed]2 | %20
w: go?|||||
w: go?|I|can- not let Thee|go, * I|dare not let Thee|
w: go.|||||
 (d4 c2) [EA]2 | [Ee]3 [Ed] [Ec]2 [DB]2 | [CA]2 [DF]2 [CE]2 [CE]2 | [DF]2 [FB]2 [EA]2 [EG]2 | %24
w: ||||
w: go; * Dear|Lord, un- til Thy|bless- ing comes, I|will not let Thee|
w: ||||
 [EA]6 x2 |] x6 |] %26
w: ||
w: go.||
w: ||
V:2
 x2 | x8 | x8 | x8 | E6 E2 | x8 | x8 | x8 | x8 | x8 | x8 | x8 | x16 | x8 | E2 x6 | E6 x2 || x6 | %17
 x8 | E6 E2 | x8 | E6 x2 | x8 | x8 | x8 | x8 |] x6 |] %26
V:3
 [A,,A,]2 | [A,,A,]3 [A,,A,] [A,,A,]2 [C,A,]2 | [D,A,]2 [F,A,]2 A,2 [A,,A,]2 | %3
 [D,A,]2 [C,A,]2 [B,,G,]2 [A,,A,]2 | (A,4 G,2) [E,G,]2 | A,3 A, A,2 [E,G,]2 | %6
 [F,A,]2 [D,A,]2 [A,,A,]2 [A,,A,]2 | [D,A,]2 [B,,D]2 [E,C]2 [E,B,]2 | [A,,A,]6 [A,,A,]2 | %9
 [E,B,]3 [E,B,] [E,B,]2 [E,B,]2 | [=D,B,]2 [E,B,]2 [B,,B,]2 [B,,B,]2 | %11
 [E,B,]2 [E,G,]2 [A,,A,]2 [A,,C]2 | [B,,B,]6 [B,,A,]2 x8 | [E,G,]3 [E,C] [E,B,]2 [E,B,]2 | %14
 [A,C]2 [A,E]2 [E,E]2 [E,B,]2 | [E,G,]2 [A,,C]2 [B,,B,]3 [B,,A,] || [E,G,]6 | [E,G,]2 x6 | %18
 [A,,A,]3 [B,,E,] [C,A,]2 [A,,A,]2 | (A,4 G,2) [E,G,]2 | [E,G,]3 [E,^F,] [E,G,]2 [E,B,]2 | %21
 (B,4 A,2) [A,C]2 | [A,C]3 [G,B,] A,2 [E,G,]2 | [F,A,]2 [D,A,]2 [A,,A,]2 [A,,A,]2 | %24
 [D,A,]2 [B,,D]2 [E,C]2 [E,B,]2 |] [A,,C]6 |] %26
V:4
 x2 | x8 | x4 A,2 x2 | x8 | E,6 x2 | A,3 A, A,2 x2 | x8 | x8 | x8 | x8 | x8 | x8 | x16 | x8 | x8 | %15
 x8 || x6 | x8 | x8 | E,6 x2 | x8 | A,,6 x2 | x4 A,2 x2 | x8 | x8 |] x6 |] %26

